X:102
T:Cathal McConnell's
T:The Cock and the Hen
M:9/8
L:1/8
R:slipjig
D:Lunasa: Otherworld
N:Learned from Lunasa: Otherworld
Z:Michael Abraham Shulman
N:Set is Roaring Barmaid - Sliabh Russel - ~.
K:F#m
|:F2F FEF c2A|F2F FEF AFE|F2F FEF Bcd|1 ecA BAF AFE:|2 ecA BAF Bcd|
|:ecA ABc def|ecA ABc BAF|ecA ABc ded|cdc BAF AFE:|
